X:6
T:Keep It Up THO1.006
M:6/8
L:1/8
Z:vmp. Peter Dunk 2012.from a transcription by Fynn Titford-Mock 2006
B:Thompson's Compleat Collection of 200 Favourite Country Dances Vol.I,1758
Q:3/8=100
K:A
a2 A agf|efd c3|f2 F fed|cdB A3|a2 A agf|gfe B2 a|gfe Tf3| e3-e3:|
|:f2 F fed|cB^A B3|e2 E edc|BAG A3|cAe -edc|dBf fed|cBA B3|A3-A3:|

